dist/images/icon/map.svg

<svg width="32" height="32" viewBox="0 0 32 32" fill="none" xmlns="http://www.w3.org/2000/svg">
<g clip-path="url(#clip0_901_3725)">
<path d="M24.5484 0.800293C20.8814 0.800293 17.8984 3.78329 17.8984 7.45029C17.8984 10.8627 23.2336 16.9066 23.8416 17.5849C24.0221 17.7844 24.2786 17.9003 24.5484 17.9003C24.8182 17.9003 25.0747 17.7844 25.2552 17.5849C25.8632 16.9066 31.1984 10.8627 31.1984 7.45029C31.1984 3.78329 28.2154 0.800293 24.5484 0.800293ZM24.5484 10.3003C22.9752 10.3003 21.6984 9.02349 21.6984 7.45029C21.6984 5.87709 22.9752 4.60029 24.5484 4.60029C26.1216 4.60029 27.3984 5.87709 27.3984 7.45029C27.3984 9.02349 26.1216 10.3003 24.5484 10.3003Z" fill="#202020"/>
<path d="M1.39396 11.961C1.03486 12.1054 0.797363 12.455 0.797363 12.8445V30.2504C0.797363 30.5658 0.955063 30.8603 1.21536 31.037C1.37496 31.1434 1.55926 31.2004 1.74736 31.2004C1.86706 31.2004 1.98676 31.1776 2.10076 31.132L10.2974 27.8526V8.40039L1.39396 11.961Z" fill="#202020"/>
<path d="M26.6711 18.8539C26.1315 19.4543 25.3582 19.8001 24.5507 19.8001C23.7432 19.8001 22.9699 19.4543 22.4303 18.8539C22.2365 18.6392 21.9876 18.3561 21.7007 18.0198V31.2001L30.6041 27.6395C30.9651 27.497 31.2007 27.1455 31.2007 26.7579V12.791C29.6446 15.4263 27.5641 17.8583 26.6711 18.8539Z" fill="#202020"/>
<path d="M16.5992 10.1598L12.2007 8.40039V27.8526L19.8007 30.8926V15.6356C18.5866 13.9997 17.3193 12.0294 16.5992 10.1598Z" fill="#202020"/>
</g>
<defs>
<clipPath id="clip0_901_3725">
<rect width="30.4" height="30.4" fill="white" transform="translate(0.799805 0.799805)"/>
</clipPath>
</defs>
</svg>

<svg width="32" height="32" fill="none" xmlns="http://www.w3.org/2000/svg"><g clip-path="url(#clip0_901_3725)" fill="#202020"><path d="M24.548.8a6.657 6.657 0 00-6.65 6.65c0 3.413 5.336 9.457 5.944 10.135a.951.951 0 001.413 0c.608-.678 5.943-6.722 5.943-10.135A6.657 6.657 0 0024.548.8zm0 9.5a2.851 2.851 0 010-5.7 2.851 2.851 0 010 5.7zM1.394 11.961a.953.953 0 00-.597.883V30.25a.952.952 0 001.304.882l8.196-3.28V8.4l-8.903 3.561z"/><path d="M26.671 18.854c-.54.6-1.313.946-2.12.946a2.855 2.855 0 01-2.12-.946 40.561 40.561 0 01-.73-.834V31.2l8.903-3.56a.947.947 0 00.597-.882V12.79c-1.556 2.635-3.637 5.067-4.53 6.063zM16.6 10.16L12.2 8.4v19.453l7.6 3.04V15.636c-1.213-1.636-2.48-3.607-3.2-5.476z"/></g><defs><clipPath id="clip0_901_3725"><path fill="#fff" transform="translate(.8 .8)" d="M0 0h30.4v30.4H0z"/></clipPath></defs></svg>
